converted-html/public/images/icons/icon-phone.svg

<?xml version="1.0" encoding="UTF-8" standalone="no"?>
<svg width="18px" height="18px" viewBox="0 0 18 18" version="1.1" xmlns="http://www.w3.org/2000/svg" xmlns:xlink="http://www.w3.org/1999/xlink" xmlns:sketch="http://www.bohemiancoding.com/sketch/ns">
    <title>icon-phone</title>
    <description>Created with Sketch (http://www.bohemiancoding.com/sketch)</description>
    <defs></defs>
    <g id="Page-1" stroke="none" stroke-width="1" fill="none" fill-rule="evenodd" sketch:type="MSPage">
        <g id="icon-phone" sketch:type="MSArtboardGroup" fill="#9E9EA8">
            <path d="M12.4381095,0 L5.56339085,0 C4.70330083,0 4,0.675454564 4,1.49960995 L4,16.50003 C4,17.3252655 4.70330083,18 5.56339085,18 L12.4381095,18 C13.2970743,18 14,17.3252655 14,16.50003 L14,1.49960995 C14,0.675454564 13.2970743,0 12.4381095,0 L12.4381095,0 Z M8.06301575,1.20040806 L9.93848462,1.20040806 C10.1110278,1.20040806 10.2513128,1.33398676 10.2513128,1.49960995 C10.2513128,1.66559318 10.1110278,1.80025204 9.93848462,1.80025204 L8.06301575,1.80025204 C7.8915979,1.80025204 7.75093773,1.66559318 7.75093773,1.49960995 C7.75093773,1.33398676 7.8915979,1.20040806 8.06301575,1.20040806 L8.06301575,1.20040806 Z M9.00075019,17.400156 C8.4819955,17.400156 8.06226557,16.9976197 8.06226557,16.50003 C8.06226557,16.0031604 8.4819955,15.600264 9.00075019,15.600264 C9.51875469,15.600264 9.93848462,16.0031604 9.93848462,16.50003 C9.93848462,16.9976197 9.51875469,17.400156 9.00075019,17.400156 L9.00075019,17.400156 Z M4.62565641,2.99993999 L13.3765941,2.99993999 L13.3765941,15.00006 L4.62565641,15.00006 L4.62565641,2.99993999 Z" id="mobile" sketch:type="MSShapeGroup"></path>
        </g>
    </g>
</svg>

<svg width="18" height="18" viewBox="0 0 18 18" xmlns="http://www.w3.org/2000/svg" xmlns:sketch="http://www.bohemiancoding.com/sketch/ns"><title>icon-phone</title><path d="M12.438 0h-6.875c-.86 0-1.563.675-1.563 1.5v15c0 .825.703 1.5 1.563 1.5h6.875c.859 0 1.562-.675 1.562-1.5v-15c0-.824-.703-1.5-1.562-1.5zm-4.375 1.2h1.875c.173 0 .313.134.313.299 0 .166-.14.301-.313.301h-1.875c-.171 0-.312-.135-.312-.301 0-.166.141-.299.312-.299zm.938 16.2c-.519 0-.938-.403-.938-.9s.42-.9.938-.9.938.403.938.9c0 .498-.42.9-.938.9zm-4.375-14.4h8.751v12h-8.751v-12z" sketch:type="MSShapeGroup" fill="#9E9EA8"/></svg>
